X:4
T:The Parting Glass
C:Trad
L:1/8
R:Air
M:4/4
Q:"70 bpm"
K:D
{g}fe | {Gdc}d3B {gBd}B2{g}AB | {gc}d2{e}A2 {gef}e3 {g}d/e/ | {g}f3g {fg}fe {g}de | {g}f2 {g}A2 {GAG}A2 {g}fe |
{Gdc}d3 {g}c/d/ {gBd}B2 {g}AB [M:5/4]| {gc}d2 {c}d2 {gef}e6 [M:3/4] | {g}de {g}Hf2 {ag}Ha2 [M:4/4] [Q:1/4=115] | f6 {g}ef | {g}d4 {e}A4 | {GdG}B8 |]

